public/icons/submit-a-brief.svg

<svg width="35" height="35" viewBox="0 0 35 35" fill="none" xmlns="http://www.w3.org/2000/svg">
<circle opacity="0.1" cx="17.5" cy="17.5" r="17.5" fill="#136AD0"/>
<path fill-rule="evenodd" clip-rule="evenodd" d="M19 7H13C11.3431 7 10 8.34315 10 10V24C10 25.6569 11.3431 27 13 27H23C24.6569 27 26 25.6569 26 24V15H23C20.7909 15 19 13.2091 19 11V7ZM13 17C13 16.4477 13.4477 16 14 16H22C22.5523 16 23 16.4477 23 17C23 17.5523 22.5523 18 22 18H14C13.4477 18 13 17.5523 13 17ZM14 21C13.4477 21 13 21.4477 13 22C13 22.5523 13.4477 23 14 23H22C22.5523 23 23 22.5523 23 22C23 21.4477 22.5523 21 22 21H14Z" fill="#093160"/>
<path d="M25.7965 13C25.6797 12.6993 25.5143 12.4172 25.3047 12.1656L21.8995 8.07945C21.6469 7.77634 21.3405 7.52989 21 7.34941V11C21 12.1046 21.8954 13 23 13H25.7965Z" fill="#093160"/>
</svg>

<svg xmlns="http://www.w3.org/2000/svg" width="35" height="35" fill="none"><circle cx="17.5" cy="17.5" r="17.5" fill="#136AD0" opacity=".1"/><path fill="#093160" fill-rule="evenodd" d="M19 7h-6a3 3 0 0 0-3 3v14a3 3 0 0 0 3 3h10a3 3 0 0 0 3-3v-9h-3a4 4 0 0 1-4-4zm-6 10a1 1 0 0 1 1-1h8a1 1 0 1 1 0 2h-8a1 1 0 0 1-1-1m1 4a1 1 0 1 0 0 2h8a1 1 0 1 0 0-2z" clip-rule="evenodd"/><path fill="#093160" d="M25.797 13a3 3 0 0 0-.492-.834L21.9 8.079a3 3 0 0 0-.9-.73V11a2 2 0 0 0 2 2z"/></svg>
